brandFactory_export/3.Masa/Ambulancia_3Masa.svg

<?xml version="1.0" encoding="UTF-8"?>
<svg width="24px" height="24px" viewBox="0 0 24 24" version="1.1" xmlns="http://www.w3.org/2000/svg" xmlns:xlink="http://www.w3.org/1999/xlink">
    <title>3.Masa/Ambulancia_3Masa</title>
    <g id="Symbols" stroke="none" stroke-width="1" fill="none" fill-rule="evenodd">
        <g id="3.Masa/Ambulancia_3Masa" fill="#5CB615" fill-rule="nonzero">
            <path d="M22.1378151,16.3462185 L22.1378151,12.9008403 C22.1378151,12.5445378 21.7915966,12.1008403 21.5932773,11.8352941 C20.4235294,10.3092437 19.2672269,8.77647059 18.1176471,7.23361345 C17.9294118,6.96806723 17.5630252,6.77983193 17.2067227,6.7394958 L17.2067227,14.7193277 C18.7596639,14.9176471 19.7915966,15.8655462 20.0672269,17.3546218 L21.1361345,17.3546218 C21.3647059,17.3546218 21.6201681,17.2369748 21.8218487,17.0386555 C22.0201681,16.8403361 22.1378151,16.5815126 22.1378151,16.3462185 L22.1378151,16.3462185 Z M16.6117647,20.2252101 C17.9697479,20.2252101 18.6521008,19.5428571 18.6521008,18.1915966 C18.6521008,16.8403361 17.9697479,16.1478992 16.6117647,16.1478992 C15.2571429,16.1478992 14.5714286,16.8403361 14.5714286,18.1915966 C14.5747899,19.5428571 15.2571429,20.2252101 16.6117647,20.2252101 Z M4.8907563,20.2252101 C6.2487395,20.2252101 6.93109244,19.5428571 6.93109244,18.1915966 C6.93109244,16.8403361 6.24537815,16.1478992 4.8907563,16.1478992 C3.53613445,16.1478992 2.84368536,16.8403361 2.84368536,18.1915966 C2.84033613,19.5428571 3.53613445,20.2252101 4.8907563,20.2252101 Z M22.7630252,10.9344538 C23.0689076,11.3176471 23.6235294,12.0403361 23.6235294,12.8907563 L23.6235294,16.3462185 C23.6235294,16.9815126 23.3546218,17.610084 22.8806723,18.0840336 C22.3966387,18.5579832 21.7613445,18.8336134 21.1394958,18.8336134 L20.0907563,18.8336134 C19.8420168,20.6218487 18.5647059,21.707563 16.6151261,21.707563 C14.5747899,21.707563 13.2806723,20.5210084 13.1193277,18.5882353 L8.38655462,18.5882353 C8.22857143,20.5243697 6.93109244,21.707563 4.8907563,21.707563 C2.84033613,21.707563 1.54285714,20.5142857 1.38487395,18.5680672 C0.605042017,18.4672269 0,17.8521008 0,17.0957983 L0,3.49915966 C0,2.6789916 0.712605042,2.01680672 1.58319328,2.01680672 L15.6235294,2.01680672 C16.4941176,2.01680672 17.2067227,2.68907563 17.2067227,3.5092437 L17.2067227,5.24705882 C18.0369748,5.29747899 18.8504202,5.71092437 19.3142857,6.36302521 C19.7647059,6.97478992 22.4168067,10.4806723 22.7630252,10.9344538 Z M12.5747899,7.51932773 L10.4470588,7.51932773 L10.4470588,5.39495798 C10.4470588,4.88067227 10.0403361,4.42689076 9.57647059,4.42689076 L7.63697479,4.42689076 C7.17310924,4.42689076 6.76638655,4.88067227 6.76638655,5.39495798 L6.76638655,7.51596639 L4.63865546,7.51596639 C4.11428571,7.51596639 3.67731092,7.9092437 3.67731092,8.38319328 L3.67731092,10.3193277 C3.67731092,10.7932773 4.11428571,11.1865546 4.63865546,11.1865546 L6.76638655,11.1865546 L6.77647059,13.3109244 C6.77647059,13.8352941 7.17310924,14.2789916 7.63697479,14.2789916 L9.58655462,14.2789916 C10.0537815,14.2789916 10.4504202,13.8352941 10.4504202,13.3109244 L10.4504202,11.1865546 L12.5781513,11.1865546 C13.092437,11.1865546 13.5495798,10.7831933 13.5495798,10.3193277 L13.5495798,8.38655462 C13.5428571,7.92268908 13.0890756,7.51932773 12.5747899,7.51932773 Z" id="Ambulancia_3Masa"></path>
        </g>
    </g>
</svg>

<svg width="24" height="24" viewBox="0 0 24 24" xmlns="http://www.w3.org/2000/svg"><path d="M22.138 16.346v-3.445c0-.356-.346-.8-.545-1.066a422.733 422.733 0 01-3.475-4.601c-.189-.266-.555-.454-.911-.495v7.98c1.553.199 2.585 1.147 2.86 2.636h1.07c.228 0 .483-.118.685-.316.198-.199.316-.457.316-.693zm-5.526 3.88c1.358 0 2.04-.683 2.04-2.034 0-1.352-.682-2.044-2.04-2.044-1.355 0-2.04.692-2.04 2.044.003 1.35.685 2.033 2.04 2.033zm-11.721 0c1.358 0 2.04-.683 2.04-2.034 0-1.352-.686-2.044-2.04-2.044-1.355 0-2.047.692-2.047 2.044-.004 1.35.692 2.033 2.047 2.033zm17.872-9.292c.306.384.86 1.106.86 1.957v3.455c0 .636-.268 1.264-.742 1.738-.484.474-1.12.75-1.742.75h-1.048c-.249 1.788-1.526 2.874-3.476 2.874-2.04 0-3.334-1.187-3.496-3.12H8.387c-.158 1.936-1.456 3.12-3.496 3.12-2.05 0-3.348-1.194-3.506-3.14-.78-.1-1.385-.716-1.385-1.472V3.499c0-.82.713-1.482 1.583-1.482h14.04c.871 0 1.584.672 1.584 1.492v1.738c.83.05 1.643.464 2.107 1.116.45.612 3.103 4.118 3.449 4.571zM12.575 7.52h-2.128V5.395c0-.514-.407-.968-.87-.968h-1.94c-.464 0-.87.454-.87.968v2.121H4.638c-.525 0-.962.393-.962.867v1.936c0 .474.437.868.962.868h2.127l.01 2.124c0 .524.397.968.861.968h1.95c.467 0 .863-.444.863-.968v-2.124h2.128c.514 0 .972-.404.972-.868V8.387c-.007-.464-.46-.868-.975-.868z" fill="#5CB615" fill-rule="nonzero"/></svg>
